X: 21412
T: EDINBRO' CASTLE -- Strathspey
R: strathspey
B: K\"ohler's Violin Repository, v.2, 1885 p.141 #2
F: http://www.archive.org/details/klersviolinrepos02rugg
Z: 2012 John Chambers <jc:trillian.mit.edu>
M: C|
L: 1/16
K: Bb
uF2 |\
(.B3.c)(B3F) Bd3B3F | (.B3.F) (ED).C.B, C(c3"_>"cd3) |\
(.B3.c)(B3F) (.B3.d)(f3b) | {g}(.f3.d) (cd).e.c d(B3"^>"B3F) |
(.B3.c)(B3F) Bd3B3F | (.B3.F) (ED).C.B, C3(c"_>"c3d) |\
(.B3.c)(B3F) (.B3.d) (fg).a.b | {g}(.f3.d) (cd).e.c dB3-"^>"B3 |]
ud2 |\
(.f3{a}.g) (f2d2) fb3 {g}f3d | (.e3.c) (ed).c.B (.c3.B)(c2d2) |\
(.f.g3) {g}(.f3.d) fb3 {g}f3d | (.e3.c) (de).f.e d(B3"^>"B3d) |
(.f3.g){g}f2d2 (fb3) {g}f2d2 | e2ge d2fd (.c3.B) (ce).d.c |\
.B3(Fd3)(c f3)(db3)ug | {g}(.f3.d) (cd)ec "_Segue Reel."dB3-B2 "^D.C."|]

%%sep 2 1 500

